X:1
T:Title
L:1/8
Q:1/4=100
M:2/4
K:Ab
V:1 treble nm="Grand Piano"
V:1
 FF FG | A>G F2 | cB cd | c4 | FF FG | A>G F2 | cB cd | c4 | cB cd | B4 | BA Bc | A4 | AG AB | %13
w: ????~????? * * *|||||||||||||
 G2 G2 | GF GA | F2 c2 | c2 cA | Bc B2 | B2 BG | AB A2 | A2 AF | GA B2 | AG A>G | F2 c2 | c2 cA | %25
w: ||||||||||||
 Bc d2 | B2 BG | AB c2 | A2 AF | GA B2 | AG A>G | F4 |] %32
w: |||||||

